!!!COM: Bach, Johann Sebastian
!!!CDT: 1685/3//-1750/7/28/
!!!OTL@@DE: Helft mir Gott's Guete preisen
!!!AGN: 4-Part Chorale; Chorale Prelude
!!!SCT: BH 088
!!!SCT: BWV 28
**harm	**root	**kern	**kern	**kern	**kern
!	!	!bass	!tenor	!alto	!soprno
*	*Iorgan	*Iorgan	*Iorgan	*Iorgan	*Iorgan
*	*	*clefF4	*clefF4	*clefG2	*clefG2
*M4/4	*M4/4	*M4/4	*M4/4	*M4/4	*M4/4
*met(c)	*met(c)	*met(c)	*met(c)	*met(c)	*met(c)
*MM60	*MM60	*MM60	*MM60	*MM60	*MM60
*k[b-e-]	*k[b-e-]	*k[b-e-]	*k[b-e-]	*k[b-e-]	*k[b-e-]
*g:	*g:	*g:	*g:	*g:	*g:
*>[A,A,B]	*>[A,A,B]	*>[A,A,B]	*>[A,A,B]	*>[A,A,B]	*>[A,A,B]
*>A	*>A	*>A	*>A	*>A	*>A
i	4AA	4GG	4B-	4d	4g
=1	=1	=1	=1	=1	=1
i	4AA	4G	4B-	4d	4g
Vb	4EE	4F#	4A	4d	4a
i	4AA	4G	4G	4d	4b-
Vb/-VII	4DD	4E	4G	4c	4cc
=2	=2	=2	=2	=2	=2
I/-VII	4.GG	2F	8F	4c	4.a
.	.	.	8E	.	.
.	.	.	8F	8f	.
viiob/-VII	8FF#	.	8G	8e	8b-
I/-VII;	4GG;	4FF;	4A;	4f;	4cc;
Vb	4EE	4F#	4A	4d	4dd
=3	=3	=3	=3	=3	=3
i	4AA	8G	8G	4d	4b-
.	.	8F	8A	.	.
VI	4FF	8E-	4B-	4g	4g
.	.	8D	.	.	.
ii7b	4BB	4C	4e-	4g	4a
V	4EE	4D	8d	4f#	4a
.	.	.	8c	.	.
=4	=4	=4	=4	=4	=4
i;	2.AA;	2.GG;	2.B-;	2.d;	2.g;
=:|!	=:|!	=:|!	=:|!	=:|!	=:|!
*>B	*>B	*>B	*>B	*>B	*>B
i	4AA	4GG	4B-	4g	4dd
=5	=5	=5	=5	=5	=5
viiob	4GG#	4AA	4c	8g	4cc
.	.	.	.	8f#	.
ib	4AA	4BB-	4d	4g	4b-
ii7b	8BB	8C	8e-	8g	4a
V	8EE	8D	8d	8f#	.
ivb	4DD	4E-	8d	8g	4g
.	.	.	8c	8G	.
=6	=6	=6	=6	=6	=6
V;	2.EE;	2.D;	2.F#;	2.d;	2.a;
V	4EE	4D	4d	4f#	4a
!!linebreak: 2
=7	=7	=7	=7	=7	=7
i	4AA	4G	4d	4g	4b-
Vb/III	4GG	4A	4c	4f	4cc
III	4CC	8B-	8B-	4f	4dd
.	.	8A	8c	.	.
i	4AA	8G	4d	4g	4b-
.	.	8F	.	.	.
=8	=8	=8	=8	=8	=8
Vb/-VII	4DD	8E	4G	4g	4.cc
.	.	8D	.	.	.
V/-VII	4DD	4C	4c	8f	.
.	.	.	.	8e	8b-
I/-VII;	4GG;	4F;	4c;	4f;	4a;
V7d/III	4GG	4E-	4c	4f	4a
=9	=9	=9	=9	=9	=9
IIIb	4CC	4D	4F	4f	4b-
iv	4DD	4C	8G	4e-	4cc
.	.	.	8A	.	.
III	4CC	4BB-	8B-	4d	4dd
.	.	.	8c	.	.
i	4AA	8AA	4d	4g	4b-
.	.	8GG	.	.	.
=10	=10	=10	=10	=10	=10
Ib/-VII	4GG	8AA	4c	8g	4.cc
.	.	8BB-	.	8f	.
V/-VII	4DD	4C	4G	8e	.
.	.	.	.	8d	8b-
I/-VII;	4GG;	4FF;	4A;	4c;	4a;
Vb	4EE	4F#	4A	4d	4dd
=11	=11	=11	=11	=11	=11
i	8AA	8G	8G	4d	8b-
vb	8EE	8F	8A	.	8a
VI	4FF	8E-	4B-	4g	4g
.	.	8D	.	.	.
ii7b	4BB	4C	4e-	4g	4a
V	4EE	4D	8d	4f#	4a
.	.	.	8c	.	.
=12	=12	=12	=12	=12	=12
I;	2.AA;	2.GG;	2.B;	2.d;	2.g;
==	==	==	==	==	==
*-	*-	*-	*-	*-	*-
!!!ONB: m.7, b.3: bass note 8C should perhaps be 8c
!!chor2scor: -l 2 -s 0.6 -o %b.pmx
!!!YEC: Copyright 1994, David Huron
!!!YEC: Changes/Additions 2001 by Craig Stuart Sapp
!!!YEN: United States of America
!!!SMA: 371 Bach Chorales, edited by Ludwig Erk, C.F. Peters
!!!PDT: 1850, 1865
!!!ONB: Harmony and Root analysis done manually
